X:1
T:Anima mia che pensi
T:Giovanni Animuccia
T:Source : Primo libro delle Laude spirituali a tre voci---Roma---A.Gardano---1583. Editor : André Vierendeels (23/11/17). Notes : Original clefs : G2, C1, C3 Editorial accidentals above the staff
T:Anima mia che pensi
T:©
T:©
C:Giovanni Animuccia
Z:©
%%score [ 1 2 3 ]
L:1/8
Q:1/4=120
M:4/4
K:F
V:1 treble nm="Soprano 1" snm="S 1"
V:2 treble nm="Soprano 2" snm="S 2"
V:3 treble-8 nm="Tenor" snm="T"
V:1
"^1)" z2 d3 d e2 | d2 B2 c4 | B4 B4 | A4 B2 c2- | c2 B2 A4 |[M:2/4] G4 ::[M:2/2] d4 _e4 | %7
w: A- ni- ma|mia che pen-|si? Per-|che do- glio-|* sa sta-|i,|sem- pre|
w: Vor- rei ri-|po- so'e pa-|ce, vor-|rei di- let-|* to'e gio-|ia,|e tro-|
 d2 c4 B2 | A4 A4 | z2 c2 d4 | c2 B4 c2 | A4 !fermata!G4 :| %12
w: tra- hen- do|gua- i,|sem- pre|tra- hen- do|gua- i?|
w: vo'af- fan- no'e|no- ia,|e tro-|vo'af- fan- no'e|no- ia.|
V:2
"^2)""^1)" z2 B3 B c2 | A2 B2 A4 | B4 G4 | F4 G2 A2- | A2 G2 ^F4 |[M:2/4] G4 ::[M:2/2] B4 G4 | %7
w: A- ni- ma|mia che pen-|si? Per-|che do- glio-|* sa sta-|i,|sem- pre|
w: Ec- co'i miei|sen- si pren-|di, qui|ti ri- po-|* sa'e go-|di,|in mil-|
 B2 A4 G2 | ^F4 F4 | A4 B4 | A2 G4 G2 |"^#" F4 !fermata!G4 :| %12
w: tra- hen- do|gua- i,|sem- pre|tra- hen- do|gua- i?|
w: le va- rii|mo- di,|in mil-|le va- rii|mo- di.|
V:3
"^3)""^1)""^4)" z2 g3 g c2 | f2 g2 f4 | B4 G4 | d4 g2 f2- | f2 g2 d4 |[M:2/4] G4 ::[M:2/2] g4 c4 | %7
w: A- ni- ma|mia che pen-|si? Per|che do- glio-|* sa sta-|i,|sem- pre|
w: Non vo piu|ber que- st'ac-|que, che|la mia se-|* te'ar- den-|te,|s'in- fiam-|
 B2 f4 g2 | d4 d4 |"^-natural" f4 B4 | c2 _e4 c2 | d4 !fermata!G4 :| %12
w: tra- hen- do|gua- i,|sem- pre|tra- hen- do|gua- i?|
w: ma mag- gior-|men- te,|s'in- fiam-|ma mag- gior-|men- te.|

